X: 291
T: Bensiz Ey Gül
C: Bîmen Şen
O: Turkey
F: http://compmusic.upf.edu/node/140
N: segah--sarki--agiraksak--bensiz_ey--bimen_sen
N: makam= segah
N: form= sarki
N: usul= agiraksak = 9/4
M: 9/4
L: 1/16
K: C _1/4B _1/4e ^f 
Q: 1/4=72
%%MIDI tuningsystem comma53
B3/2^A/G2 A2B2 c2d2 _3/4efe/d/c ded/c/B cdc/B/A B4 ABcA B4  | 
w:  ARANAĞME  | 
cd2c B2c2 d2_3/4e2 d2ag gf2_1/4e feed d4 cdef d4  | 
w:   | 
cd2e f2g2 a2gf _b2ag g2fe a2gf f2ed g2fe d2c2  | 
w:   | 
B^ABc d2e2 fga_b agfe d3c dccB B4 ABcA B3c  | 
w:   | 
B3/2^A/G2 A2B2 c2d2 _3/4efe/d/c ded/c/B cdc/B/A B4 ABcA B4  | 
w:  ARANAĞME  | 
cd2c B2c2 d2_3/4e2 d2ag gf2_1/4e feed d4 cdef d4  | 
w:   | 
cd2e f2g2 a2gf _b2ag g2fe a2gf f2ed g2fe d2c2  | 
w:   | 
B^ABc d2e2 fga_b agfe d3c dccB B4 ABcA B3c  | 
w:   | 
d2{g}=fe dcB^A {A}G2G4A2 B8 c4 d4 c2_2/4B2  | \
w:  *  *  *  *  *  *  *  *  *  *  Ben siz_ ey  gül   | 
c2_2/4BA A4 z2G4^A2 _1/4B8 c2d2 c4 d4  | 
w:  *  *  *  *  gül şen_ i  â  | 
d2e4dc c2d4e2 f2g2 a2{_b}ag {a}g6gf f3e  | \
w:  *  *  *  *  *  lem de  mey  *  *  *  *  *  *  nûş   | 
e2d4c2 z2d2 e2g2 gf2e feed d6fe dcBc  | 
w:  *  *  *  ey *  *  *  *  *  *  *  le *  me   SAZ  | 
d8 z2d4g2 g3f e2d2 f2g2 a2g2 f2e2  | \
w:  *  An de lib_ *  *  *  i   | 
f2gf e2d2 z2d4e2 =f3e d4 e3d c4 d2e2  | 
w:  *  *  *  *  *  aş kı nı  *  *  has  | 
d2c4B2 z2B4d2 c2d2 c2B2 g6fe f2ed  | \
w:  *  *  *  ret le  hâ *  *  *  mûş   | 
e2dc d2cB B2cd c2d2 dc2B ^ABc/d/c/B/ B6fe dcBc  | 
w:  *  *  *  *  *  *  *  ey *  *  *  *  *  *  *  *  *  *  le *  me   SAZ  | 
d8 z2d4g2 g3f e2d2 f2g2 a2g2 f2e2  | \
w:  *  An de lib_ *  *  *  i   | 
f2gf e2d2 z2d4e2 =f3e d4 e3d c4 d2e2  | 
w:  *  *  *  *  *  aş kı nı  *  *  has  | 
d2c4B2 z2B4d2 c2d2 c2B2 g6fe f2ed  | \
w:  *  *  *  ret le  hâ *  *  *  mûş   | 
e2dc d2cB B2cd c2d2 dc2B ^ABc/d/c/B/ B6ag gff^e  | 
w:  *  *  *  *  *  *  *  ey *  *  *  *  *  *  *  *  *  *  le *  me   SAZ  | 
f8 z2^e4g2 f8 f2g2 ^a2b2 c'2b2  | \
w:  *  Gön lü mü  sah  | 
^a2g4f^e f2c'2 _b2=a2 a2g4ab agfe f3g gf_1/4ed  | 
w:  *  *  *  *  *  ba *  yı  hic *  *  *  râ  | 
e6d2 z2d4e2 f2g2 a2{_b}ag {a}g6gf f3e  | \
w:  *  *  nın la  bî *  *  *  *  *  *  hûş   | 
e2d4c2 z2d2 e2g2 gf2e feed d6fe dcBc  | 
w:  *  *  *  ey *  *  *  *  *  *  *  le *  me   SAZ  | 
d8 z2d4g2 g3f e2d2 f2g2 a2g2 f2e2  | \
w:  *  An de lib_ *  *  *  i   | 
f2gf e2d2 z2d4e2 =f3e d4 e3d c4 d2e2  | 
w:  *  *  *  *  *  aş kı nı  *  *  has  | 
d2c4B2 z2B4d2 c2d2 c2B2 g6fe f2ed  | \
w:  *  *  *  ret le  hâ *  *  *  mûş   | 
e2dc d2cB B2cd c2d2 dc2B ^ABc/d/c/B/ B6fe dcBc  | 
w:  *  *  *  *  *  *  *  ey *  *  *  *  *  *  *  *  *  *  le *  me   SAZ  | 
d8 z2d4g2 g3f e2d2 f2g2 a2g2 f2e2  | \
w:  *  An de lib_ *  *  *  i   | 
f2gf e2d2 z2d4e2 =f3e d4 e3d c4 d2e2  | 
w:  *  *  *  *  *  aş kı nı  *  *  has  | 
d2c4B2 z2B4d2 c2d2 c2B2 g6fe f2ed  | \
w:  *  *  *  ret le  hâ *  *  *  mûş   | 
e2dc d2cB B2cd c2d2 dc2B ^ABc/d/c/B/ B6|
w:  *  *  *  *  *  *  *  ey *  *  *  *  *  *  *  *  *  *  le *  me    | 


